X: 103
T:Bonny Lass of Fyfie
R:march
M:4/4
L:1/4
K:D
A|"D"d>c de|d2 A2|d>c de|d3A|
d2 fg|a2 gf|"Em"e2 A2|"A7"A2 ag|
"D"f>e fg|"D7"a2 AA|"G"d>e dB|
G2 BB|"D"A2 cd|"A7"ed cB|"D"A2 "G"d2|"D"d3:|
%%text between verses
e|g>ecB|A2|]

